source/img/sprite/ok.svg

<svg width="9" height="16" viewBox="0 0 9 16" fill="" xmlns="http://www.w3.org/2000/svg">
<path d="M4.5 2.42035C5.41587 2.42035 6.1607 3.18736 6.1607 4.1305C6.1607 5.0708 5.41587 5.83781 4.5 5.83781C3.58413 5.83781 2.8393 5.0708 2.8393 4.1305C2.8393 3.18736 3.58413 2.42035 4.5 2.42035ZM4.5 8.25816C6.71243 8.25816 8.51106 6.40597 8.51106 4.1305C8.51106 1.85219 6.71243 0 4.5 0C2.28757 0 0.491701 1.85219 0.491701 4.1305C0.491701 6.40597 2.28757 8.25816 4.5 8.25816ZM6.12208 11.6273C6.93863 11.4342 7.72485 11.1018 8.45037 10.6331C8.99934 10.278 9.16486 9.53083 8.82003 8.96551C8.47244 8.39735 7.74967 8.22691 7.19795 8.58485C5.55656 9.6473 3.44344 9.6473 1.79929 8.58485C1.25033 8.22691 0.524805 8.39735 0.179975 8.96551C-0.164855 9.53083 0.000663014 10.278 0.549632 10.6331C1.27515 11.1018 2.06136 11.4342 2.87792 11.6273L0.63515 13.934C0.177216 14.4056 0.177216 15.1726 0.63515 15.6442C0.866875 15.88 1.16481 15.9993 1.4655 15.9993C1.76619 15.9993 2.06688 15.88 2.29861 15.6442L4.5 13.3772L6.70415 15.6442C7.16208 16.1186 7.90416 16.1186 8.36485 15.6442C8.82278 15.1726 8.82278 14.4056 8.36485 13.934L6.12208 11.6273Z" fill=""/>
</svg>

<svg xmlns="http://www.w3.org/2000/svg" width="9" height="16"><path d="M4.5 2.4c1 0 1.7.8 1.7 1.7 0 1-.8 1.7-1.7 1.7-1 0-1.7-.7-1.7-1.7s.8-1.7 1.7-1.7Zm0 5.9a4 4 0 0 0 4-4.2 4 4 0 0 0-4-4.1 4 4 0 0 0-4 4.1 4 4 0 0 0 4 4.2Zm1.6 3.3c.8-.2 1.6-.5 2.4-1 .5-.3.7-1 .3-1.6-.3-.6-1-.8-1.6-.4a5 5 0 0 1-5.4 0C1.3 8.2.5 8.4.2 9c-.4.5-.2 1.3.3 1.6.8.5 1.6.8 2.4 1L.6 14c-.4.5-.4 1.3 0 1.7a1.2 1.2 0 0 0 1.7 0l2.2-2.2 2.2 2.2c.5.5 1.2.5 1.7 0 .4-.4.4-1.2 0-1.7L6 11.6Z"/></svg>
